small/extra/apps/standard/gparted.svg

<?xml version="1.0" encoding="UTF-8" standalone="no"?>
<!-- Created with Inkscape (http://www.inkscape.org/) -->
<svg id="svg2" xmlns:rdf="http://www.w3.org/1999/02/22-rdf-syntax-ns#" xmlns="http://www.w3.org/2000/svg" height="100%" width="100%" version="1.1" xmlns:cc="http://creativecommons.org/ns#" xmlns:dc="http://purl.org/dc/elements/1.1/" viewBox="0 0 512 512">
 <metadata id="metadata10">
  <rdf:RDF>
   <cc:Work rdf:about="">
    <dc:format>image/svg+xml</dc:format>
    <dc:type rdf:resource="http://purl.org/dc/dcmitype/StillImage"/>
    <dc:title/>
   </cc:Work>
  </rdf:RDF>
 </metadata>
 <text id="text20" style="word-spacing:0;letter-spacing:0" font-size="129.23px" line-height="125%" y="91.57193" x="-351.68549" font-family="Gentium Book Basic">
  <tspan id="tspan22" y="91.57193" x="-351.68549"/>
 </text>
 <text id="text24" style="text-anchor:middle" transform="scale(4.0128 .24920)" font-size="46.954px" y="18.313808" x="109.44035" font-family="Arial"/>
 <text id="text26" style="word-spacing:0;letter-spacing:0" font-size="129.23px" line-height="125%" y="11.57193" x="229.58453" font-family="Gentium Book Basic">
  <tspan id="tspan28" y="11.57193" x="229.58453"/>
 </text>
 <text id="text30" style="text-anchor:middle" transform="scale(4.0128 .24920)" font-size="46.954px" y="-302.72433" x="254.28963" font-family="Arial"/>
 <text id="text32" style="word-spacing:0;letter-spacing:0" font-size="129.23px" line-height="125%" y="-169.68805" x="-841.99548" font-family="Gentium Book Basic">
  <tspan id="tspan34" y="-169.68805" x="-841.99548"/>
 </text>
 <text id="text36" style="text-anchor:middle" transform="scale(4.0128 .24920)" font-size="46.954px" y="-1030.0707" x="-12.749008" font-family="Arial"/>
 <text id="text38" style="word-spacing:0;letter-spacing:0" font-size="129.23px" line-height="125%" y="-386.15805" x="256.0545" font-family="Gentium Book Basic">
  <tspan id="tspan40" y="-386.15805" x="256.0545"/>
 </text>
 <text id="text42" style="text-anchor:middle" transform="scale(4.0128 .24920)" font-size="46.954px" y="-1898.7463" x="260.88962" font-family="Arial"/>
 <text id="text44" style="word-spacing:0;letter-spacing:0" font-size="129.23px" line-height="125%" y="-466.15802" x="837.32452" font-family="Gentium Book Basic">
  <tspan id="tspan46" y="-466.15802" x="837.32452"/>
 </text>
 <text id="text48" style="text-anchor:middle" transform="scale(4.0128 .24920)" font-size="46.954px" y="-2219.7747" x="405.73886" font-family="Arial"/>
 <text id="text50" style="word-spacing:0;letter-spacing:0" font-size="129.23px" line-height="125%" y="-938.55804" x="448.20453" font-family="Gentium Book Basic">
  <tspan id="tspan52" y="-938.55804" x="448.20453"/>
 </text>
 <text id="text54" style="text-anchor:middle" transform="scale(4.0128 .24920)" font-size="46.954px" y="-4115.4248" x="308.76932" font-family="Arial"/>
 <text id="text56" style="word-spacing:0;letter-spacing:0" font-size="129.23px" line-height="125%" y="-1018.5681" x="1029.4646" font-family="Gentium Book Basic">
  <tspan id="tspan58" y="-1018.5681" x="1029.4646"/>
 </text>
 <text id="text60" style="text-anchor:middle" transform="scale(4.0128 .24920)" font-size="46.954px" y="-4436.4634" x="453.61862" font-family="Arial"/>
 <text id="text62" style="word-spacing:0;letter-spacing:0" font-size="208.33px" line-height="125%" y="396.15204" x="-803.33551" font-family="Gentium Book Basic">
  <tspan id="tspan64" y="396.15204" x="-803.33551"/>
 </text>
 <text id="text20-2" font-size="129.23px" style="word-spacing:0;letter-spacing:0" line-height="125%" y="149.14371" x="-100.09924" font-family="&apos;Gentium Book Basic&apos;">
  <tspan id="tspan22-9" y="149.14371" x="-100.09924"/>
 </text>
 <text id="text24-1" style="text-anchor:middle" transform="scale(4.0128 .24920)" font-size="46.954px" y="249.33902" x="172.13597" font-family="Arial"/>
 <text id="text26-2" font-size="129.23px" style="word-spacing:0;letter-spacing:0" line-height="125%" y="69.143707" x="481.17078" font-family="&apos;Gentium Book Basic&apos;">
  <tspan id="tspan28-7" y="69.143707" x="481.17078"/>
 </text>
 <text id="text30-0" style="text-anchor:middle" transform="scale(4.0128 .24920)" font-size="46.954px" y="-71.69912" x="316.98523" font-family="Arial"/>
 <text id="text32-5" font-size="129.23px" style="word-spacing:0;letter-spacing:0" line-height="125%" y="-112.11627" x="-590.40924" font-family="&apos;Gentium Book Basic&apos;">
  <tspan id="tspan34-9" y="-112.11627" x="-590.40924"/>
 </text>
 <text id="text36-4" style="text-anchor:middle" transform="scale(4.0128 .24920)" font-size="46.954px" y="-799.04547" x="49.946606" font-family="Arial"/>
 <text id="text38-5" font-size="129.23px" style="word-spacing:0;letter-spacing:0" line-height="125%" y="-328.58627" x="507.64075" font-family="&apos;Gentium Book Basic&apos;">
  <tspan id="tspan40-1" y="-328.58627" x="507.64075"/>
 </text>
 <text id="text42-0" style="text-anchor:middle" transform="scale(4.0128 .24920)" font-size="46.954px" y="-1667.7211" x="323.58521" font-family="Arial"/>
 <text id="text44-6" font-size="129.23px" style="word-spacing:0;letter-spacing:0" line-height="125%" y="-408.58624" x="1088.9108" font-family="&apos;Gentium Book Basic&apos;">
  <tspan id="tspan46-1" y="-408.58624" x="1088.9108"/>
 </text>
 <text id="text48-6" style="text-anchor:middle" transform="scale(4.0128 .24920)" font-size="46.954px" y="-1988.7494" x="468.43445" font-family="Arial"/>
 <text id="text50-9" font-size="129.23px" style="word-spacing:0;letter-spacing:0" line-height="125%" y="-880.98627" x="699.79077" font-family="&apos;Gentium Book Basic&apos;">
  <tspan id="tspan52-2" y="-880.98627" x="699.79077"/>
 </text>
 <text id="text54-6" style="text-anchor:middle" transform="scale(4.0128 .24920)" font-size="46.954px" y="-3884.3999" x="371.4649" font-family="Arial"/>
 <text id="text56-5" font-size="129.23px" style="word-spacing:0;letter-spacing:0" line-height="125%" y="-960.99628" x="1281.0508" font-family="&apos;Gentium Book Basic&apos;">
  <tspan id="tspan58-1" y="-960.99628" x="1281.0508"/>
 </text>
 <text id="text60-5" style="text-anchor:middle" transform="scale(4.0128 .24920)" font-size="46.954px" y="-4205.438" x="516.31421" font-family="Arial"/>
 <text id="text62-6" font-size="208.33px" style="word-spacing:0;letter-spacing:0" line-height="125%" y="453.72382" x="-551.74927" font-family="&apos;Gentium Book Basic&apos;">
  <tspan id="tspan64-2" y="453.72382" x="-551.74927"/>
 </text>
 <text id="text20-4" font-size="129.23px" style="word-spacing:0;letter-spacing:0" line-height="125%" y="156.00256" x="-406.91168" font-family="&apos;Gentium Book Basic&apos;">
  <tspan id="tspan22-90" y="156.00256" x="-406.91168"/>
 </text>
 <text id="text24-0" style="text-anchor:middle" transform="scale(4.0128 .24920)" font-size="46.954px" y="276.8512" x="95.677933" font-family="Arial"/>
 <text id="text26-9" font-size="129.23px" style="word-spacing:0;letter-spacing:0" line-height="125%" y="76.002571" x="174.35834" font-family="&apos;Gentium Book Basic&apos;">
  <tspan id="tspan28-2" y="76.002571" x="174.35834"/>
 </text>
 <text id="text30-9" style="text-anchor:middle" transform="scale(4.0128 .24920)" font-size="46.954px" y="-44.17717" x="240.52719" font-family="Arial"/>
 <text id="text32-0" font-size="129.23px" style="word-spacing:0;letter-spacing:0" line-height="125%" y="-105.25843" x="-897.22168" font-family="&apos;Gentium Book Basic&apos;">
  <tspan id="tspan34-7" y="-105.25843" x="-897.22168"/>
 </text>
 <text id="text36-8" style="text-anchor:middle" transform="scale(4.0128 .24920)" font-size="46.954px" y="-771.53345" x="-26.511448" font-family="Arial"/>
 <text id="text38-2" font-size="129.23px" style="word-spacing:0;letter-spacing:0" line-height="125%" y="-321.72742" x="200.82831" font-family="&apos;Gentium Book Basic&apos;">
  <tspan id="tspan40-2" y="-321.72742" x="200.82831"/>
 </text>
 <text id="text42-9" style="text-anchor:middle" transform="scale(4.0128 .24920)" font-size="46.954px" y="-1640.1991" x="247.12714" font-family="Arial"/>
 <text id="text44-69" font-size="129.23px" style="word-spacing:0;letter-spacing:0" line-height="125%" y="-401.73743" x="782.09833" font-family="&apos;Gentium Book Basic&apos;">
  <tspan id="tspan46-0" y="-401.73743" x="782.09833"/>
 </text>
 <text id="text48-8" style="text-anchor:middle" transform="scale(4.0128 .24920)" font-size="46.954px" y="-1961.2373" x="391.97644" font-family="Arial"/>
 <text id="text50-5" font-size="129.23px" style="word-spacing:0;letter-spacing:0" line-height="125%" y="-874.13745" x="392.97833" font-family="&apos;Gentium Book Basic&apos;">
  <tspan id="tspan52-4" y="-874.13745" x="392.97833"/>
 </text>
 <text id="text54-5" style="text-anchor:middle" transform="scale(4.0128 .24920)" font-size="46.954px" y="-3856.8877" x="295.0069" font-family="Arial"/>
 <text id="text56-6" font-size="129.23px" style="word-spacing:0;letter-spacing:0" line-height="125%" y="-954.13745" x="974.23834" font-family="&apos;Gentium Book Basic&apos;">
  <tspan id="tspan58-6" y="-954.13745" x="974.23834"/>
 </text>
 <text id="text60-3" style="text-anchor:middle" transform="scale(4.0128 .24920)" font-size="46.954px" y="-4177.916" x="439.8562" font-family="Arial"/>
 <text id="text62-3" font-size="208.33px" style="word-spacing:0;letter-spacing:0" line-height="125%" y="460.58258" x="-858.56171" font-family="&apos;Gentium Book Basic&apos;">
  <tspan id="tspan64-0" y="460.58258" x="-858.56171"/>
 </text>
 <path id="path9" d="m26 0c-14.397 0-26 11.603-26 26v460c0 14.397 11.603 26 26 26h460c14.397 0 26-11.603 26-26v-460c0-14.397-11.6-26-26-26h-460" fill="#ef6a47"/>
 <text id="text11" font-size="129.23px" style="word-spacing:0;letter-spacing:0" line-height="125%" y="195.35001" x="22.948" font-family="&apos;Gentium Book Basic&apos;">
  <tspan id="tspan13" y="195.35001" x="22.948"/>
 </text>
 <text id="text15" style="text-anchor:middle" transform="scale(4.0128 .24920)" font-size="46.954px" y="434.73776" x="202.79897" font-family="Arial"/>
 <text id="text17" font-size="129.23px" style="word-spacing:0;letter-spacing:0" line-height="125%" y="115.35" x="604.21997" font-family="&apos;Gentium Book Basic&apos;">
  <tspan id="tspan19" y="115.35" x="604.21997"/>
 </text>
 <text id="text21" style="text-anchor:middle" transform="scale(4.0128 .24920)" font-size="46.954px" y="113.70942" x="347.64822" font-family="Arial"/>
 <text id="text23" font-size="129.23px" style="word-spacing:0;letter-spacing:0" line-height="125%" y="-65.912003" x="-467.35999" font-family="&apos;Gentium Book Basic&apos;">
  <tspan id="tspan25" y="-65.912003" x="-467.35999"/>
 </text>
 <text id="text27" style="text-anchor:middle" transform="scale(4.0128 .24920)" font-size="46.954px" y="-613.6369" x="80.609589" font-family="Arial"/>
 <text id="text29" font-size="129.23px" style="word-spacing:0;letter-spacing:0" line-height="125%" y="-282.38" x="630.69" font-family="&apos;Gentium Book Basic&apos;">
  <tspan id="tspan31" y="-282.38" x="630.69"/>
 </text>
 <text id="text33" style="text-anchor:middle" transform="scale(4.0128 .24920)" font-size="46.954px" y="-1482.3025" x="354.2482" font-family="Arial"/>
 <text id="text35" font-size="129.23px" style="word-spacing:0;letter-spacing:0" line-height="125%" y="-362.39001" x="1211.96" font-family="&apos;Gentium Book Basic&apos;">
  <tspan id="tspan37" y="-362.39001" x="1211.96"/>
 </text>
 <text id="text39" style="text-anchor:middle" transform="scale(4.0128 .24920)" font-size="46.954px" y="-1803.3407" x="499.09744" font-family="Arial"/>
 <text id="text41" font-size="129.23px" style="word-spacing:0;letter-spacing:0" line-height="125%" y="-834.78998" x="822.84003" font-family="&apos;Gentium Book Basic&apos;">
  <tspan id="tspan43" y="-834.78998" x="822.84003"/>
 </text>
 <text id="text45" style="text-anchor:middle" transform="scale(4.0128 .24920)" font-size="46.954px" y="-3698.981" x="402.12796" font-family="Arial"/>
 <text id="text47" font-size="129.23px" style="word-spacing:0;letter-spacing:0" line-height="125%" y="-914.78998" x="1404.1" font-family="&apos;Gentium Book Basic&apos;">
  <tspan id="tspan49" y="-914.78998" x="1404.1"/>
 </text>
 <text id="text51" style="text-anchor:middle" transform="scale(4.0128 .24920)" font-size="46.954px" y="-4019.9995" x="546.97717" font-family="Arial"/>
 <text id="text53" font-size="208.33px" style="word-spacing:0;letter-spacing:0" line-height="125%" y="499.92999" x="-428.70001" font-family="&apos;Gentium Book Basic&apos;">
  <tspan id="tspan55" y="499.92999" x="-428.70001"/>
 </text>
 <path id="path59" opacity=".25" fill-rule="evenodd" d="m251.93 41.006c-14.64 0.12-29.96 1.698-45.85 5.103l18.64 69.591-29.71-29.72c-86.93 19.61-151.88 97.25-151.88 190.11 0.001 53.82 21.821 102.55 57.09 137.82l98.09 98.09h287.69c14.4 0 26-11.6 26-26v-272.88l-115.84-115.84c-28.18-28.181-76.89-55.019-138-56.241l104.52 104.52-104.52-104.52c-2.06-0.038-4.14-0.051-6.23-0.034z"/>
 <path id="path87" fill="#fff" d="m258.16 41.04c71.52 1.431 126.07 37.953 150.58 70.65l-154.62 113.72-48.04-179.29c18.16-3.892 35.57-5.399 52.08-5.068m-63.14 44.94 45.819 177.37 172 99.09c-31.844 64.32-98.16 108.55-174.79 108.55-107.65 0-194.91-87.27-194.91-194.91 0-92.86 64.951-170.5 151.88-190.11m227.39 52.49c67.58 81.88 49.935 172.98 19.238 220.67l-173.96-107.1 154.73-113.56" fill-rule="evenodd"/>
</svg>

<?xml version="1.0" encoding="UTF-8" standalone="no"?>
<!-- Created with Inkscape (http://www.inkscape.org/) -->

<svg
   xmlns:dc="http://purl.org/dc/elements/1.1/"
   xmlns:cc="http://creativecommons.org/ns#"
   xmlns:rdf="http://www.w3.org/1999/02/22-rdf-syntax-ns#"
   xmlns:svg="http://www.w3.org/2000/svg"
   xmlns="http://www.w3.org/2000/svg"
   xmlns:sodipodi="http://sodipodi.sourceforge.net/DTD/sodipodi-0.dtd"
   xmlns:inkscape="http://www.inkscape.org/namespaces/inkscape"
   id="svg2"
   height="100%"
   width="100%"
   version="1.1"
   viewBox="0 0 512 512"
   inkscape:version="0.91 r13725"
   sodipodi:docname="gparted.svg">
  <defs
     id="defs101" />
  <sodipodi:namedview
     pagecolor="#ffffff"
     bordercolor="#666666"
     borderopacity="1"
     objecttolerance="10"
     gridtolerance="10"
     guidetolerance="10"
     inkscape:pageopacity="0"
     inkscape:pageshadow="2"
     inkscape:window-width="640"
     inkscape:window-height="480"
     id="namedview99"
     showgrid="false"
     inkscape:zoom="0.5546875"
     inkscape:cx="36.056338"
     inkscape:cy="240.67606"
     inkscape:current-layer="svg2" />
  <metadata
     id="metadata10">
    <rdf:RDF>
      <cc:Work
         rdf:about="">
        <dc:format>image/svg+xml</dc:format>
        <dc:type
           rdf:resource="http://purl.org/dc/dcmitype/StillImage" />
        <dc:title />
      </cc:Work>
    </rdf:RDF>
  </metadata>
  <path
     inkscape:connector-curvature="0"
     style="fill:#ef6a47"
     id="path9"
     d="M 26,0 C 11.603,0 0,11.603 0,26 l 0,460 c 0,14.397 11.603,26 26,26 l 460,0 c 14.397,0 26,-11.603 26,-26 L 512,26 C 512,11.603 500.4,0 486,0 L 26,0" />
  <path
     inkscape:connector-curvature="0"
     style="opacity:0.25;fill-rule:evenodd"
     id="path59"
     d="m 251.93,41.006 c -14.64,0.12 -29.96,1.698 -45.85,5.103 L 224.72,115.7 195.01,85.98 c -86.93,19.61 -151.88,97.25 -151.88,190.11 10e-4,53.82 21.821,102.55 57.09,137.82 L 198.31,512 486,512 c 14.4,0 26,-11.6 26,-26 L 512,213.12 396.16,97.28 C 367.98,69.099 319.27,42.261 258.16,41.039 L 362.68,145.559 258.16,41.039 c -2.06,-0.038 -4.14,-0.051 -6.23,-0.034 z" />
  <path
     inkscape:connector-curvature="0"
     style="fill:#ffffff;fill-rule:evenodd"
     id="path87"
     d="m 258.16,41.04 c 71.52,1.431 126.07,37.953 150.58,70.65 L 254.12,225.41 206.08,46.12 c 18.16,-3.892 35.57,-5.399 52.08,-5.068 m -63.14,44.94 45.819,177.37 172,99.09 c -31.844,64.32 -98.16,108.55 -174.79,108.55 -107.65,0 -194.91,-87.27 -194.91,-194.91 0,-92.86 64.951,-170.5 151.88,-190.11 m 227.39,52.49 c 67.58,81.88 49.935,172.98 19.238,220.67 l -173.96,-107.1 154.73,-113.56" />
</svg>
